X:1
T:Ave Maria S. 38
T:Franz Liszt (1870)
T:Ave Maria S. 38
T:Copyright © 2017 by CPDL.  This edition can be fully distributed, duplicated, performed, and recorded.
T:Copyright © 2017 by CPDL.  This edition can be fully distributed, duplicated, performed, and recorded.
T:Copyright © 2017 by CPDL.  This edition can be fully distributed, duplicated, performed, and recorded.
T:Copyright © 2017 by CPDL.  This edition can be fully distributed, duplicated, performed, and recorded.
T:Copyright © 2017 by CPDL.  This edition can be fully distributed, duplicated, performed, and recorded.
T:Copyright © 2017 by CPDL.  This edition can be fully distributed, duplicated, performed, and recorded.
C:Franz Liszt (1870)
Z:Copyright © 2017 by CPDL.  This edition can be fully distributed, duplicated, performed, and recorded.
%%score { ( 1 3 ) | ( 2 4 ) } { ( 5 8 ) | ( 6 7 ) }
L:1/8
Q:1/4=80
M:3/4
K:D
V:1 treble nm="Choir" snm="Choir"
V:3 treble 
V:2 bass 
V:4 bass 
V:5 treble nm="Organ" snm="Org."
V:8 treble 
V:6 bass 
V:7 bass 
V:1
 z6 | z6 | z6 |!p! z6 | F6 | (E2 F2) (GA) | (B4 A2) | A2 z2 z2 | F6 | (E2 F2) (GA) | (B4 A2) | %11
w: ||||A-|ve * Ma- *|ri- *|a,|gra-|ti- * a *|ple- *|
 A2 z2 z2 |!<(! [Fd]4!<)! [Fc]2 | [GB]2 z2 z2 |!>(! B6!>)! | [FA]2 z2 z2 | (A2 ^G2) F2 | %17
w: na,|Do- mi-|nus|te-|cum,|be- * ne-|
 (F2 E2) E2 | (F4 ^G2) | [EA]2 [FB]2 [Fc]2 | [Ec]4 [DB]2 | [CA]2 z2 [CA]2 | (A2 ^G2) F2 | %23
w: di- * cta|tu *|in mu- li-|e- ri-|bus et|be- * ne-|
 (F2 E2) E2 | (F2 ^G2)!<(! G2 | (A2 B2)!<)! c2 |!<(! [^Ec]6 | [^Ec]2!<)! z2 z2 |"^a2"!>(! c6-!>)! | %29
w: di- * ctus|fru- * ctus|ven- * tris|tu-|i,|Je-|
 c6 |!pp! F6 | z6 |!p! F6 | (E2!<(! F2) GA!<)! | B6 | A2 z2 z2 |!<(! ([C-F]6 | %37
w: |su.||San-|cta * Ma- *|ri-|||
 E2!>(! F2) (G!<)!A)!>)! | B6 | A2 z2 z2 |"^espressivo" [Fd]6 | [Ec]4 [DB]2 |!<(! B6!<)! | B4 z2 | %44
w: * * ter *|||o-|ra pro|no-||
!>(! [F=c]4!>)! [Fc]2 | [FB]4 [FA]2 | [FA]6- | [FA]2 z2 z2 |!p! [EG]2 z2 z2 | [EG]2 z2 [EG]2 | %50
w: pec- ca-|to- ri-|bus|_|nunc|et in|
 ([EF-]6 | [^DF]4) [DF]2 | [=DF]6 | [DF]4 z2 |!>(! ([C-F]6!>)! | [C^E]6) | [C=E]6 | z6 | z6 | z6 | %60
w: ho-|* ra|mor-|tis|nos-||trae.||||
!p! [CE]6- | [CE]6 | D6 | z6 | z6 | z6 | z6 | z6 |] %68
w: A-||men.||||||
V:2
 z6 | z6 | z6 | z6 | [D,A,]6 | [G,A,]4 [E,A,]2 | [F,A,]6 | [F,A,]2 z2 z2 | [D,A,]6 | %9
w: |||||||||
w: |||||||||
 [G,A,]4 [E,A,]2 | [F,A,]6 | [F,A,]2 z2 z2 |!<(! [F,B,]4!<)! [F,C]2 | [B,D]2 z2 z2 | %14
w: |||||
w: |||||
!>(! B,4 C2!>)! | D2 z2 z2 | [F,A,]4 [F,A,]2 | [^G,B,]4 [G,B,]2 | [F,A,]4 [E,B,]2 | %19
w: |||||
w: |||||
 [C,C]2 [D,B,]2 [^D,A,]2 | [E,^G,]4 [E,G,]2 | [E,A,]2 z2 [E,A,]2 | [F,A,]4 [F,A,]2 | %23
w: ||||
w: ||||
 [^G,B,]4 [G,B,]2 | [F,A,]2 [E,B,]2!<(! [D,B,]2 | C2 B,2!<)! A,2 |!<(! [C,^G,]6 | %27
w: ||||
w: ||||
 [C,^G,]2!<)! z2 z2 |"^a2"!>(! C6-!>)! | C6 |!pp! F,6 | z6 | [F,A,]6 | [=G,A,]4!<(! [E,A,]2!<)! | %34
w: |||||||
w: |||||||
 [^E,^G,]6 | [F,A,]2 z2 z2 |!<(! [F,A,-]6 | [=G,A,]4!<)!!>(! [E,A,]2!>)! | [^E,^G,]6 | %39
w: |||||
w: |||||
 [F,A,]2 z2 z2 | A,4 ^A,2 | [F,^A,]4 [G,B,]2 |!<(! [G,B,]6-!<)! | [G,B,]2 [F,A,]2 [E,A,]2 | %44
w: |||||
w: |||no-|* * bis|
!>(! [^D,A,]4!>)! [D,A,]2 | [^D,B,]4 [D,=C]2 | [^D,-=C]6 | [D,B,]2 z2 z2 |!p! [E,B,]2 z2 z2 | %49
w: |||||
w: |||||
 [E,B,]2 z2 [E,B,]2 | [B,,B,]6- | [B,,B,]4 [B,,F,]2 | [B,,F,]6 | B,4 A,2 |!>(! [C,^G,]6-!>)! | %55
w: ||||||
w: ||||||
 [C,G,]6 | [C,^G,]6 | z6 |!p! z6 | z6 | =G,6- | G,6 | F,6 | z6 | z6 | z6 | z6 | z6 |] %68
w: |||||||||||||
w: |||||||men.||||||
V:3
 x6 | x6 | x6 | x6 | D6 | C4 C2 | D6 | D2 x4 | D6 | C4 C2 | D6 | D2 x4 | x6 | x6 | (D4 E2) | x6 | %16
w: ||||||||||||||||
 D4 D2 | D4 D2 | D6 | x6 | x6 | x6 | D4 D2 | D4 D2 | D4 E2 | E4 E2 | x6 | x6 | x6 | x6 | x6 | x6 | %32
w: ||||||||||||||||
 C6 | C4 C2 | (C6 | D2 E2) F2 | x6 | C4 C2 | (C6 | D2 E2) F2 | x6 | x6 | (D4 ^D2) | (^D4 E2) | x6 | %45
w: |||* * a,|||De-|* * i:||||bis *||
 x6 | x6 | x6 | x6 | x6 | x6 | x6 | x6 | x6 | x6 | x6 | x6 | x6 | x6 | x6 | x6 | x6 | x6 | x6 | %64
w: |||||||||||||||||||
 x6 | x6 | x6 | x6 |] %68
w: ||||
V:4
 x6 | x6 | x6 | x6 | x6 | x6 | x6 | x6 | x6 | x6 | x6 | x6 | B,,4 A,,2 | G,,2 x4 | G,6 | D,2 x4 | %16
 x6 | x6 | x6 | x6 | x6 | x6 | x6 | x6 | x6 | C,4 C,2 | x6 | x6 | x6 | x6 | x6 | x6 | x6 | x6 | %34
 x6 | x6 | x6 | x6 | x6 | x6 | F,6 | x6 | x6 | x6 | x6 | x6 | x6 | x6 | x6 | x6 | x6 | x6 | x6 | %53
 B,,4 z2 | x6 | x6 | x6 | x6 | B,,6 | A,,6- | A,,6- | A,,6 | D,6 | x6 | x6 | x6 | x6 | x6 |] %68
V:5
"^dolce"!p! z6 | ([A,D]6 | [B,E]6 | [CF-]6 | [DF]2) z2 z2 | z6 | z6 | z6 | z6 | z6 | z6 | z6 | %12
 (d4 c2 | [GB]2) z2 z2 | (B6 | [FA]2) z2 z2 | z6 | z6 | z2 F2 ^G2 | A2 B2 c2- | [Ec]4 [DB]2 | %21
 [CA]2 z2 z2 | z6 | z6 | z2!<(! ^G4 | A2 B2!<)! c2- | c6 | z6 | c6 | z6 | F6 | z6 | z6 | z6 | %34
!p! ([CB]6 | [DA]) z z2 z2 | z6 | z6 | (([CB]6 | [DA])) z z2 z2 | [Fd]6 | [Ec]4 [DB]2 | B6- | %43
 B2 z2 z2 | [F=c]2 z2 z2 | .[FB]2 z2 z2 | [FA]2 z2 z2 | z6 | [EG]2 z2 z2 | z6 | [EF-]6 | [^DF-]6 | %52
 [=DF]2 z2 z2 | z6 | [C-F]6 | [C-^E]6 | [C=E]4 z2 | z6 | z6 | z6 | [CE]6- | [CE]2 z2 z2 | %62
 [F,A,D]6- | [F,A,D]2 z2 z2 | [F,B,D]6- | [F,B,D]2 z2 z2 | [A,DF]6- | !fermata![A,DF]6 |] %68
V:6
 A,,6- | F,6 | G,6 | [A,,A,-]6 | [D,A,]2 z2 z2 | z6 | z6 | z6 | z6 | z6 | z6 | z6 | %12
!<(! B,4!<)! [A,C]2 | [G,D]2 z2 z2 |!>(! B,4!>)! C2 | [D,D]2 z2 z2 | z6 | z6 | z2 A,2 B,2 | A,6 | %20
 [E,-^G,]6 | [E,A,]2 z2 z2 | z6 | z6 | z2 B,4 | A,6 |!<(! ^G,6!<)! | z6 | C6 | z6 | F,6 | z6 | z6 | %33
 z6 | [^E,^G,]6 | [F,A,] z z2 z2 | z6 | z6 | [^E,^G,]6 | [F,A,] z z2 z2 | A,4 ^A,2- | A,4 B,2 | %42
 B,6- | B,2 A,2 G,2 | [^D,A,]2 z2 z2 | .[^D,B,]2 z2 z2 | [^D,=C]2 z2 z2 | z6 | [E,B,]2 z2 z2 | z6 | %50
 [B,,B,]6- | [B,,B,]6- | [B,,B,]2 z2 z2 | z6 | [C,^G,]6- | [C,G,]6- | [C,G,]4 z2 | z6 | z6 | z6 | %60
 [A,,=G,]6- | [A,,G,]2 z2 z2 | [D,,D,]6- | [D,,D,]2 z2 z2 | [D,,D,]6- | [D,,D,]2 z2 z2 | %66
 [D,,D,]6- | !fermata![D,,D,]6 |] %68
V:7
 x6 | A,,6- | A,,6- | x6 | x2 x2 x2 | x6 | x6 | x6 | x6 | x6 | x6 | x6 | x6 | x6 | G,6 | x6 | x6 | %17
 x6 | x2 F,2 E,2 | C,2 D,2 ^D,2 | x6 | x2 x2 x2 | x6 | x6 | x2 E,2 D,2 | C,6- | C,6 | x6 | x6 | %29
 x6 | x6 | x6 | x6 | x6 | x6 | x6 | x6 | x6 | x6 | x6 | F,6- | F,4 G,2 | G,6- | G,2 F,2 E,2 | x6 | %45
 x6 | x6 | x6 | x6 | x6 | x6 | x6 | x6 | x6 | x6 | x6 | x6 | x6 | x6 | x6 | x6 | x6 | x6 | x6 | %64
 x6 | x6 | x6 | x6 |] %68
V:8
 x6 | x6 | x6 | x6 | x6 | x6 | x6 | x6 | x6 | x6 | x6 | x6 | F6 | x6 | D4 E2 | x6 | x6 | x6 | %18
 x2 D4 | E2 F4 | x6 | x6 | x6 | x6 | z2 D2 E2 | E6 | ^E6 | x6 | x6 | x6 | x6 | x6 | x6 | x6 | x6 | %35
 x6 | x6 | x6 | x6 | x6 | x6 | x6 | D4 ^D2 | ^D4 E2 | x6 | x6 | x6 | x6 | x6 | x6 | x6 | x6 | x6 | %53
 x6 | x6 | x6 | x6 | x6 | x6 | x6 | x6 | x6 | x6 | x6 | x6 | x6 | x6 | x6 |] %68

